tools/download-figma-icons/icons/solid/magic-link.svg

<svg width="24" height="24" viewBox="0 0 24 24" fill="none" xmlns="http://www.w3.org/2000/svg">
<path d="M23.9925 8.07488C23.9925 7.80497 23.85 7.55755 23.6176 7.42259L21.3459 6.11052V3.94372C21.3459 3.12649 20.6786 2.4592 19.8613 2.4592H15.7977L12.4238 0.134956C12.1688 -0.0449854 11.8314 -0.0449854 11.569 0.134956L8.20262 2.4667H4.31888C3.50165 2.4667 2.83436 3.13398 2.83436 3.95122V6.00555L0.37516 7.42259C0.135238 7.55755 -0.00721558 7.81247 0.000281984 8.08238C0.000281984 8.11987 0.00777955 8.14986 0.0152771 8.17985C0.0152771 8.21734 0.000281984 8.25482 0.000281984 8.29231V21.7804C0.000281984 22.8076 0.832512 23.6398 1.85968 23.6398H22.1406C23.1678 23.6398 24 22.8076 24 21.7804V8.29981C24 8.26232 23.9925 8.22483 23.985 8.18735C23.985 8.14986 24 8.11237 24 8.07488H23.9925ZM19.8463 3.95122V9.83681L11.9964 16.967L4.33388 10.0018L4.31888 3.95872L19.8463 3.94372V3.95122Z" fill="black"/>
<path d="M5.93836 9.20684L6.4257 9.55922L6.95053 8.85445L7.46787 9.55922L7.96271 9.20684L7.43788 8.49457L8.27011 8.21716L8.08267 7.63984L7.25044 7.91725V7.04004H6.64313V7.91725L5.8109 7.64734L5.61597 8.22465L6.45569 8.49457L5.93836 9.20684Z" fill="black"/>
<path d="M9.19234 9.20684L9.68718 9.55922L10.212 8.85445L10.7293 9.55922L11.2167 9.20684L10.6994 8.49457L11.5316 8.21716L11.3441 7.63984L10.5119 7.91725V7.04004H9.90461V7.91725L9.06488 7.64734L8.87744 8.22465L9.71717 8.49457L9.19234 9.20684Z" fill="black"/>
<path d="M12.4462 9.20684L12.9411 9.55922L13.4659 8.85445L13.9832 9.55922L14.4706 9.20684L13.9533 8.49457L14.7855 8.21716L14.598 7.63984L13.7658 7.91725V7.04004H13.1585V7.91725L12.3188 7.64734L12.1313 8.22465L12.9711 8.49457L12.4462 9.20684Z" fill="black"/>
<path d="M15.7078 9.20684L16.1951 9.55922L16.7199 8.85445L17.2373 9.55922L17.7321 9.20684L17.2148 8.49457L18.0395 8.21716L17.8521 7.63984L17.0198 7.91725V7.04004H16.4125V7.91725L15.5803 7.64734L15.3854 8.22465L16.2251 8.49457L15.7078 9.20684Z" fill="black"/>
</svg>

<svg xmlns="http://www.w3.org/2000/svg" width="24" height="24" fill="none" viewBox="0 0 24 24"><path fill="currentColor" d="M23.993 8.075a.75.75 0 0 0-.375-.652L21.346 6.11V3.944c0-.818-.667-1.485-1.485-1.485h-4.063L12.424.135a.74.74 0 0 0-.855 0L8.203 2.467H4.319c-.817 0-1.485.667-1.485 1.484v2.055L.375 7.423a.73.73 0 0 0-.375.66c0 .037.008.067.015.097 0 .037-.015.075-.015.112V21.78a1.86 1.86 0 0 0 1.86 1.86h20.28c1.028 0 1.86-.832 1.86-1.86V8.3a.6.6 0 0 0-.015-.113c0-.037.015-.075.015-.112zM19.846 3.95v5.886l-7.85 7.13-7.662-6.965-.015-6.043 15.527-.015z"/><path fill="currentColor" d="m5.938 9.207.488.352.525-.705.517.705.495-.352-.525-.712.832-.278-.187-.577-.833.277V7.04h-.607v.877l-.832-.27-.195.578.84.27zm3.254 0 .495.352.525-.705.517.705.488-.352-.518-.712.833-.278-.188-.577-.832.277V7.04h-.607v.877l-.84-.27-.188.578.84.27zm3.254 0 .495.352.525-.705.517.705.488-.352-.518-.712.833-.278-.188-.577-.832.277V7.04h-.607v.877l-.84-.27-.188.578.84.27zm3.262 0 .487.352.525-.705.517.705.495-.352-.517-.712.825-.278-.188-.577-.832.277V7.04h-.607v.877l-.833-.27-.195.578.84.27z"/></svg>
